X: 1
T: Richard Dwyer's Fancy
R: reel
M: 4/4
L: 1/8
K: Gmaj
|:G2DG B,GDG|DEGA BGBd|e2Be edBe|d2BG AGEA|
G2DG B,GDG|DEGA BGBd|e2Be edBG|AGEA G2 (3GGG:|
|:e3e edBe|d2BG dGBd|cdec BcdB|ABcd edef|
gdBd cedc|(3BAG (3AGF GDB,D|CEFA GABd|^cdef g4:|

composer: Richard Dwyer
